adminer-theme/favicon.svg

<svg height="64" viewBox="0 0 64 64" width="64" xmlns="http://www.w3.org/2000/svg"><rect fill="#fff" height="64" rx="12" width="64"/><path d="m332.410156 228.164062h-134.167968c-2.804688 0-5.082032-2.277343-5.082032-5.085937 0-2.804687 2.277344-5.082031 5.082032-5.082031h97.96875c2.808593 0 5.082031-2.273438 5.082031-5.082032 0-2.804687-2.273438-5.082031-5.082031-5.082031h-10.585938c-1.917969-13.421875-9.855469-25.542969-24.554688-28.371093.386719-2.425782.59375-4.910157.59375-7.445313 0-25.777344-20.898437-46.671875-46.675781-46.671875-22.414062 0-41.136719 15.800781-45.640625 36.875v-.003906c-6.734375-3.765625-14.492187-5.910156-22.753906-5.910156-18.394531 0-34.304688 10.644531-41.90625 26.109374h-62.097656c-2.808594 0-5.082032 2.277344-5.082032 5.082032 0 2.808594 2.273438 5.085937 5.082032 5.085937h97.96875c2.804687 0 5.082031 2.273438 5.082031 5.082031 0 2.808594-2.277344 5.082032-5.082031 5.082032h-61.769532c-2.808593 0-5.082031 2.277344-5.082031 5.085937 0 2.804688 2.273438 5.082031 5.082031 5.082031h22.195313c4.554687 21.003907 23.246094 36.738282 45.609375 36.738282h115.59375c7.234375-1.308594 12.917969-5.535156 16.925781-11.324219h53.296875c2.808594 0 5.085938-2.273437 5.085938-5.082031s-2.277344-5.082032-5.085938-5.082032zm0 0" fill="#2f36fa" transform="matrix(.14 0 0 .14 6 6)"/></svg>

<svg xmlns="http://www.w3.org/2000/svg" width="64" height="64" viewBox="0 0 64 64">
  <!-- White background -->
  <rect width="64" height="64" fill="#ffffff" rx="12"/>
  <!-- Plak logo centered and scaled -->
  <g transform="translate(6, 6) scale(0.14)">
    <path fill="#2f36fa" d="M 332.410156 228.164062 L 198.242188 228.164062 C 195.4375 228.164062 193.160156 225.886719 193.160156 223.078125 C 193.160156 220.273438 195.4375 217.996094 198.242188 217.996094 L 296.210938 217.996094 C 299.019531 217.996094 301.292969 215.722656 301.292969 212.914062 C 301.292969 210.109375 299.019531 207.832031 296.210938 207.832031 L 285.625 207.832031 C 283.707031 194.410156 275.769531 182.289062 261.070312 179.460938 C 261.457031 177.035156 261.664062 174.550781 261.664062 172.015625 C 261.664062 146.238281 240.765625 125.34375 214.988281 125.34375 C 192.574219 125.34375 173.851562 141.144531 169.347656 162.21875 L 169.347656 162.214844 C 162.613281 158.449219 154.855469 156.304688 146.59375 156.304688 C 128.199219 156.304688 112.289062 166.949219 104.6875 182.414062 L 42.589844 182.414062 C 39.78125 182.414062 37.507812 184.691406 37.507812 187.496094 C 37.507812 190.304688 39.78125 192.582031 42.589844 192.582031 L 140.558594 192.582031 C 143.363281 192.582031 145.640625 194.855469 145.640625 197.664062 C 145.640625 200.472656 143.363281 202.746094 140.558594 202.746094 L 78.789062 202.746094 C 75.980469 202.746094 73.707031 205.023438 73.707031 207.832031 C 73.707031 210.636719 75.980469 212.914062 78.789062 212.914062 L 100.984375 212.914062 C 105.539062 233.917969 124.230469 249.652344 146.59375 249.652344 L 262.1875 249.652344 C 269.421875 248.34375 275.105469 244.117188 279.113281 238.328125 L 332.410156 238.328125 C 335.21875 238.328125 337.496094 236.054688 337.496094 233.246094 C 337.496094 230.4375 335.21875 228.164062 332.410156 228.164062 Z M 332.410156 228.164062 "/>
  </g>
</svg>
